kiosk-igrinskij/images/3fb1c2f87aeed3aab2a112e8c4b940da.svg

<svg fill="none" height="14" viewBox="0 0 14 14" width="14" xmlns="http://www.w3.org/2000/svg"><path d="m5.07089 11.3618-2.3031 2.3048c-.21339.2133-.50246.3334-.80462.3334-.30159 0-.59122-.1195-.80461-.3329l-.825105-.825c-.213388-.2134-.33345459-.503-.33345457-.8052.00000001-.3016.12006657-.5912.33345557-.8046l2.304244-2.30356-.26284-.26283c-.21339-.21337-.33346-.50357-.33346-.80515 0-.30214.12064-.59177.33403-.80515.70227-.69769 1.30803-.54871 2.59223-.01622l5.22654-5.22917c.4438-.4444 3.2893-2.18255 3.7337-1.7381516.4444.4449676-1.2938 3.2897516-1.7382 3.7341516l-5.2271 5.22973c.52909 1.28585.67695 1.89045-.0185 2.58875-.21338.2139-.50303.334-.80461.334-.30216 0-.5918-.1201-.80519-.3335z" fill="#f1e9dd"/></svg>

<svg width="14" height="14" viewBox="0 0 14 14" fill="none" xmlns="http://www.w3.org/2000/svg">
<path d="M5.07089 11.3618L2.76779 13.6666C2.5544 13.8799 2.26533 14 1.96317 14C1.66158 14 1.37195 13.8805 1.15856 13.6671L0.333455 12.8421C0.120067 12.6287 4.14317e-07 12.3391 4.27524e-07 12.0369C4.40707e-07 11.7353 0.120067 11.4457 0.333456 11.2323L2.6377 8.92874L2.37486 8.66591C2.16147 8.45254 2.0414 8.16234 2.0414 7.86076C2.0414 7.55862 2.16204 7.26899 2.37543 7.05561C3.0777 6.35792 3.68346 6.5069 4.96766 7.03939L10.1942 1.81022C10.638 1.36582 13.4835 -0.37233 13.9279 0.0720684C14.3723 0.517036 12.6341 3.36182 12.1897 3.80622L6.9626 9.03595C7.49169 10.3218 7.63955 10.9264 6.9441 11.6247C6.73072 11.8386 6.44107 11.9587 6.13949 11.9587C5.83733 11.9587 5.54769 11.8386 5.3343 11.6252L5.07089 11.3618Z" fill="#F1E9DD"/>
</svg>
